packages/foundations/assets/icons/functional/images/devices/camera_12_filled.svg

<svg width="12" height="12" viewBox="0 0 12 12" fill="none" xmlns="http://www.w3.org/2000/svg">
<g clip-path="url(#clip0_2204_2746)">
<path fill-rule="evenodd" clip-rule="evenodd" d="M7.19314 2.39999C7.5522 2.39999 7.89239 2.56078 8.12033 2.83821L8.74915 3.60419L9.59625 3.60185C10.2289 3.5999 10.7487 4.08783 10.7964 4.7086L10.8 4.79815V8.39999C10.8 9.06274 10.2627 9.59999 9.59995 9.59999H2.39995C1.73721 9.59999 1.19995 9.06274 1.19995 8.39999V4.80534C1.19995 4.1426 1.73721 3.60534 2.39995 3.60534L3.26455 3.60479L3.87204 2.8488C4.07702 2.59344 4.37631 2.4342 4.69936 2.4049L4.80783 2.39999H7.19314ZM5.99995 5.09999C5.33721 5.09999 4.79995 5.63725 4.79995 6.29999C4.79995 6.96274 5.33721 7.49999 5.99995 7.49999C6.66269 7.49999 7.19995 6.96274 7.19995 6.29999C7.19995 5.63725 6.66269 5.09999 5.99995 5.09999Z" fill="#1A1C1F"/>
</g>
<defs>
<clipPath id="clip0_2204_2746">
<rect width="12" height="12" fill="white"/>
</clipPath>
</defs>
</svg>

<svg xmlns="http://www.w3.org/2000/svg" width="12" height="12" fill="none"><g clip-path="url(#a)"><path fill="#1A1C1F" fill-rule="evenodd" d="M7.193 2.4c.36 0 .7.16.927.438l.63.766.846-.002a1.2 1.2 0 0 1 1.2 1.107l.004.09V8.4a1.2 1.2 0 0 1-1.2 1.2H2.4a1.2 1.2 0 0 1-1.2-1.2V4.805a1.2 1.2 0 0 1 1.2-1.2h.865l.607-.756a1.2 1.2 0 0 1 .827-.444l.109-.005zM6 5.1a1.2 1.2 0 1 0 0 2.4 1.2 1.2 0 0 0 0-2.4" clip-rule="evenodd"/></g><defs><clipPath id="a"><path fill="#fff" d="M0 0h12v12H0z"/></clipPath></defs></svg>
